X: 21431
M: 6/8
L: 1/8
K: D
V: 1 name="4"
d2A AFA | B2A AFA | d2A agf | ecA ABc |\
d2A AFA | B2A AFA | dfa efg | fdd d2 H|]
z |\
fdd add | bdd add | fdd add | gfg eag |\
fdd add | bdd add | gfg eag | fdd "^D.C."d2 |]
d |\
cdB AFA | BGB AFA | DFA dAF | GEE E2d |\
cdB AFA | BGB AFA | DFA GEG | FDD "^D.C."D2 |]


